public/icons/general.svg

<svg xmlns="http://www.w3.org/2000/svg" viewBox="0 0 490 490" width="512" height="512"><path d="M245 490c135.31 0 245-109.69 245-245S380.31 0 245 0 0 109.69 0 245s109.69 245 245 245zm15.313-159.64c24.066 1.997 44.484 8.513 61.597 17.208-18.697 40.233-44.076 72.288-61.597 91.678V330.36zm0-30.718v-39.329h85.548c-1.647 20.602-6.156 40.271-12.436 58.675-20.381-10.014-44.622-17.355-73.112-19.346zm0-69.954v-39.322c28.8-2.013 53.264-9.489 73.781-19.669 6.273 18.434 10.648 38.199 11.999 58.99h-85.78zm0-70.04V52.256c18.117 19.275 43.614 50.522 62.189 89.882-17.234 8.847-37.846 15.49-62.189 17.51zm-30.626.046c-24.285-1.955-44.933-8.553-62.271-17.38 18.582-39.443 44.127-70.754 62.271-90.057v107.437zm0 30.704v39.289h-85.78c1.347-20.729 5.7-40.438 11.943-58.825 20.615 10.159 45.107 17.587 73.837 19.536zm0 69.915v39.296c-28.423 1.928-52.695 9.219-73.171 19.209-6.249-18.355-10.734-37.967-12.376-58.506h85.547zm0 70v108.932c-17.546-19.419-42.976-51.539-61.681-91.856 17.217-8.675 37.673-15.143 61.681-17.076zm-27.099 124.841c-37.843-7.625-72.103-25.251-99.909-49.987 7.935-11.571 20.681-27.192 38.987-41.225 18.597 39.088 42.628 70.492 60.922 91.212zm145.597-90.904c18.398 14.281 30.947 30.111 38.513 41.469-27.695 24.446-61.725 41.866-99.286 49.434 18.246-20.665 42.197-51.959 60.773-90.903zm12.216-29.131c8.354-23.047 14.333-48.14 16.168-74.807h82.253c-3.317 46.767-21.702 89.431-50.316 123.165-10.225-14.324-25.955-32.525-48.105-48.358zm16.389-105.431c-1.496-26.942-7.357-52.173-15.748-75.266 21.811-15.725 37.34-33.711 47.466-47.897 28.613 33.734 46.998 76.396 50.315 123.162H376.79zm-28.079-104.345c-18.958-39.105-43.767-70.255-62.759-90.777 38.137 7.408 72.693 24.953 100.745 49.714-7.497 11.257-19.881 26.892-37.986 41.063zm-207.571.31c-18.022-13.928-30.601-29.36-38.459-40.821 28.162-25.052 62.947-42.803 101.366-50.265-19.041 20.575-43.93 51.836-62.907 91.086zm-12.289 29.055c-8.335 23.014-14.151 48.149-15.642 74.98H31.178c3.297-46.493 21.487-88.931 49.815-122.571 10.425 14.276 26.113 32.07 47.858 47.591zm-15.42 105.605c1.827 26.558 7.766 51.555 16.066 74.525-22.081 15.625-37.979 33.627-48.507 48.044-28.326-33.64-46.515-76.077-49.813-122.569h82.254z" fill="green"/></svg>

<?xml version="1.0" encoding="iso-8859-1"?>
<!-- Generator: Adobe Illustrator 19.0.0, SVG Export Plug-In . SVG Version: 6.00 Build 0)  -->
<svg xmlns="http://www.w3.org/2000/svg" xmlns:xlink="http://www.w3.org/1999/xlink" version="1.1" id="Capa_1" x="0px" y="0px" viewBox="0 0 490 490" style="enable-background:new 0 0 490 490;" xml:space="preserve" width="512px" height="512px">
<g>
	<path d="M245,490c135.31,0,245-109.69,245-245S380.31,0,245,0S0,109.69,0,245S109.69,490,245,490z M260.313,330.36   c24.066,1.997,44.484,8.513,61.597,17.208c-18.697,40.233-44.076,72.288-61.597,91.678V330.36z M260.313,299.642v-39.329h85.548   c-1.647,20.602-6.156,40.271-12.436,58.675C313.044,308.974,288.803,301.633,260.313,299.642z M260.313,229.688v-39.322   c28.8-2.013,53.264-9.489,73.781-19.669c6.273,18.434,10.648,38.199,11.999,58.99H260.313z M260.313,159.648V52.256   c18.117,19.275,43.614,50.522,62.189,89.882C305.268,150.985,284.656,157.628,260.313,159.648z M229.687,159.694   c-24.285-1.955-44.933-8.553-62.271-17.38c18.582-39.443,44.127-70.754,62.271-90.057V159.694z M229.687,190.398v39.289h-85.78   c1.347-20.729,5.7-40.438,11.943-58.825C176.465,181.021,200.957,188.449,229.687,190.398z M229.687,260.313v39.296   c-28.423,1.928-52.695,9.219-73.171,19.209c-6.249-18.355-10.734-37.967-12.376-58.506H229.687z M229.687,330.313v108.932   c-17.546-19.419-42.976-51.539-61.681-91.856C185.223,338.714,205.679,332.246,229.687,330.313z M202.588,455.154   c-37.843-7.625-72.103-25.251-99.909-49.987c7.935-11.571,20.681-27.192,38.987-41.225   C160.263,403.03,184.294,434.434,202.588,455.154z M348.185,364.25c18.398,14.281,30.947,30.111,38.513,41.469   c-27.695,24.446-61.725,41.866-99.286,49.434C305.658,434.488,329.609,403.194,348.185,364.25z M360.401,335.119   c8.354-23.047,14.333-48.14,16.168-74.807h82.253c-3.317,46.767-21.702,89.431-50.316,123.165   C398.281,369.153,382.551,350.952,360.401,335.119z M376.79,229.688c-1.496-26.942-7.357-52.173-15.748-75.266   c21.811-15.725,37.34-33.711,47.466-47.897c28.613,33.734,46.998,76.396,50.315,123.162H376.79z M348.711,125.343   c-18.958-39.105-43.767-70.255-62.759-90.777c38.137,7.408,72.693,24.953,100.745,49.714   C379.2,95.537,366.816,111.172,348.711,125.343z M141.14,125.653c-18.022-13.928-30.601-29.36-38.459-40.821   c28.162-25.052,62.947-42.803,101.366-50.265C185.006,55.142,160.117,86.403,141.14,125.653z M128.851,154.708   c-8.335,23.014-14.151,48.149-15.642,74.98H31.178c3.297-46.493,21.487-88.931,49.815-122.571   C91.418,121.393,107.106,139.187,128.851,154.708z M113.431,260.313c1.827,26.558,7.766,51.555,16.066,74.525   c-22.081,15.625-37.979,33.627-48.507,48.044c-28.326-33.64-46.515-76.077-49.813-122.569H113.431z" fill="#008000"/>
</g>
<g>
</g>
<g>
</g>
<g>
</g>
<g>
</g>
<g>
</g>
<g>
</g>
<g>
</g>
<g>
</g>
<g>
</g>
<g>
</g>
<g>
</g>
<g>
</g>
<g>
</g>
<g>
</g>
<g>
</g>
</svg>
